X:541
T: HANS PITTF[ERK3EN LIET SIEN
N: E1820
O: Europa, Mitteleuropa, Deutschland, Niederrhein, Meurs
R: Kinder -, Wiegen -, Schlaf - Lied
M: 2/4
L: 1/8
K: C
G, | CCG,G, | A,A,G,z
CCG,G, | A,A,G,
G, | CCG,G, | A,A,G,z
CCG,G, | A,A,G,z
EEDC | E2Ez
DDDE | CCCz
EEDC | E2Ez
DDDE | CCCz

